www/assets/icons/outlet.svg

<svg xmlns="http://www.w3.org/2000/svg" width="24" height="24" viewBox="0 0 24 24" fill='currentColor'><path d="M12 2C6.48 2 2 6.48 2 12s4.48 10 10 10 10-4.48 10-10S17.52 2 12 2M9 12c-.55 0-1-.45-1-1V8c0-.55.45-1 1-1s1 .45 1 1v3c0 .55-.45 1-1 1m5 6h-4v-2c0-1.1.9-2 2-2s2 .9 2 2zm2-7c0 .55-.45 1-1 1s-1-.45-1-1V8c0-.55.45-1 1-1s1 .45 1 1z"/></svg>

<svg width="24" height="24" viewBox="0 0 24 24" xmlns="http://www.w3.org/2000/svg" fill='currentColor'><path d="M12 2C6.48 2 2 6.48 2 12C2 17.52 6.48 22 12 22C17.52 22 22 17.52 22 12C22 6.48 17.52 2 12 2ZM9 12C8.45 12 8 11.55 8 11V8C8 7.45 8.45 7 9 7C9.55 7 10 7.45 10 8V11C10 11.55 9.55 12 9 12ZM14 18H10V16C10 14.9 10.9 14 12 14C13.1 14 14 14.9 14 16V18ZM16 11C16 11.55 15.55 12 15 12C14.45 12 14 11.55 14 11V8C14 7.45 14.45 7 15 7C15.55 7 16 7.45 16 8V11Z"/></svg>
